symbols/amenity/ferry.svg

<?xml version="1.0" encoding="UTF-8"?>
<svg xmlns="http://www.w3.org/2000/svg" width="14" height="14" viewBox="0 0 14 14">
  <path d="M 7,0 C 6.1253946,0 5.4140625,0.7026661 5.4140625,1.5683594 5.4140625,2.2059534 5.8015873,2.75498 6.3535156,3 6.3465545,3.3334053 6.3389743,3.6665943 6.3320312,4 H 2 v 1 h 4.3125 c -0.040833,1.9652474 -0.082466,3.9292782 -0.1230469,5.894531 -0.00265,0.125895 0.00195,1.393427 -1.6992187,0.517578 C 2.7844231,10.534906 3.7469006,9.5408232 3.8613281,9.5117188 2.8591762,9.1963061 1.9523583,8.3194572 1.21875,7.4199219 0.49872446,9.0233829 1.7874594,10.736126 1.8496094,10.980469 2.0043881,10.811256 2.2350285,10.837639 2.3769531,10.861328 4.1133097,13.566717 6.3891016,13.241925 7,14 c 0.6108984,-0.758075 2.8870879,-0.433283 4.623047,-3.138672 0.141793,-0.02369 0.3723,-0.05007 0.527344,0.119141 0.06228,-0.244343 1.351083,-1.9570861 0.630859,-3.5605471 C 12.047775,8.3194572 11.140492,9.1963061 10.138672,9.5117188 10.252636,9.5408232 11.2172,10.534906 9.5117188,11.412109 7.8102142,12.287958 7.8131976,11.020426 7.8105469,10.894531 7.7711086,8.9292552 7.7285215,6.9652436 7.6875,5 H 12 V 4 H 7.6679688 C 7.6610735,3.6665933 7.6532838,3.3334086 7.6464844,3 8.1990762,2.75498 8.5859375,2.2059534 8.5859375,1.5683594 8.5859375,0.7026661 7.8752682,0 7,0 Z m 0,0.99414062 c 0.3100882,0 0.5625,0.25745228 0.5625,0.57421878 C 7.5625,1.8844493 7.3100882,2.140625 7,2.140625 6.6899138,2.140625 6.4375,1.8844493 6.4375,1.5683594 6.4375,1.2515929 6.6899138,0.99414062 7,0.99414062 Z"/>
</svg>

<?xml version="1.0" encoding="UTF-8" standalone="no"?>
<svg
   xmlns:dc="http://purl.org/dc/elements/1.1/"
   xmlns:cc="http://creativecommons.org/ns#"
   xmlns:rdf="http://www.w3.org/1999/02/22-rdf-syntax-ns#"
   xmlns:svg="http://www.w3.org/2000/svg"
   xmlns="http://www.w3.org/2000/svg"
   id="svg2"
   viewBox="0 0 14 14"
   height="14"
   width="14"
   version="1.1">
  <metadata
     id="metadata8">
    <rdf:RDF>
      <cc:Work
         rdf:about="">
        <dc:format>image/svg+xml</dc:format>
        <dc:type
           rdf:resource="http://purl.org/dc/dcmitype/StillImage" />
        <dc:title></dc:title>
      </cc:Work>
    </rdf:RDF>
  </metadata>
  <defs
     id="defs6" />
  <rect
     style="visibility:hidden;fill:none;stroke:none"
     id="canvas"
     y="0"
     x="0"
     height="14"
     width="14" />
  <g
     transform="matrix(0.06556385,0,0,0.06556385,-1.2618014,-53.99653)"
     id="layer1">
    <path
       id="path2299"
       transform="matrix(15.252307,0,0,15.252307,19.245383,823.57168)"
       d="M 7 0 C 6.1253946 0 5.4140625 0.7026661 5.4140625 1.5683594 C 5.4140625 2.2059534 5.8015873 2.75498 6.3535156 3 C 6.3465545 3.3334053 6.3389743 3.6665943 6.3320312 4 L 2 4 L 2 5 L 6.3125 5 C 6.2716666 6.9652474 6.2300335 8.9292782 6.1894531 10.894531 C 6.1868043 11.020426 6.1914069 12.287958 4.4902344 11.412109 C 2.7844231 10.534906 3.7469006 9.5408232 3.8613281 9.5117188 C 2.8591762 9.1963061 1.9523583 8.3194572 1.21875 7.4199219 C 0.49872446 9.0233829 1.7874594 10.736126 1.8496094 10.980469 C 2.0043881 10.811256 2.2350285 10.837639 2.3769531 10.861328 C 4.1133097 13.566717 6.3891016 13.241925 7 14 C 7.6108984 13.241925 9.8870879 13.566717 11.623047 10.861328 C 11.76484 10.837639 11.995347 10.811256 12.150391 10.980469 C 12.212673 10.736126 13.501474 9.0233829 12.78125 7.4199219 C 12.047775 8.3194572 11.140492 9.1963061 10.138672 9.5117188 C 10.252636 9.5408232 11.2172 10.534906 9.5117188 11.412109 C 7.8102142 12.287958 7.8131976 11.020426 7.8105469 10.894531 C 7.7711086 8.9292552 7.7285215 6.9652436 7.6875 5 L 12 5 L 12 4 L 7.6679688 4 C 7.6610735 3.6665933 7.6532838 3.3334086 7.6464844 3 C 8.1990762 2.75498 8.5859375 2.2059534 8.5859375 1.5683594 C 8.5859375 0.7026661 7.8752682 0 7 0 z M 7 0.99414062 C 7.3100882 0.99414062 7.5625 1.2515929 7.5625 1.5683594 C 7.5625 1.8844493 7.3100882 2.140625 7 2.140625 C 6.6899138 2.140625 6.4375 1.8844493 6.4375 1.5683594 C 6.4375 1.2515929 6.6899138 0.99414062 7 0.99414062 z "
       style="color:#000000;fill:#000000;fill-rule:evenodd;stroke-width:0.06696775" />
  </g>
</svg>
